X:2
T:Rond de St. Vincent
R:rond
O:Bretagne
D:Kornog: Ar Seizh Avel
Z:id:hn-rond-2
M:4/4
Q:1/4=180
K:Am
AB cA {B}AG AE | AB cA {B}AG AF | AB cA {B}AG A2 :|
|: Ac Bc dc B2 | AA {c}BA GG A2 | Ac Bc dc B{c}B | AA {c}BA G2 A2 :|

